incomeartour/img/countries/france.svg

<svg width="26" height="25" viewBox="0 0 26 25" fill="none" xmlns="http://www.w3.org/2000/svg">
<g clip-path="url(#clip0)">
<path d="M8.40098 20.6892H0.498682C0.260645 20.6892 0.067627 20.4962 0.067627 20.2582V4.74093C0.067627 4.50289 0.260645 4.30988 0.498682 4.30988H8.40098V20.6892Z" fill="#41479B"/>
<path d="M16.7346 4.31012H8.40112V20.6895H16.7346V4.31012Z" fill="#F5F5F5"/>
<path d="M24.6364 20.6892H16.7341V4.30994H24.6364C24.8745 4.30994 25.0675 4.50295 25.0675 4.74099V20.2582C25.0675 20.4963 24.8745 20.6892 24.6364 20.6892Z" fill="#FF4B55"/>
</g>
<defs>
<clipPath id="clip0">
<rect width="25" height="25" fill="white" transform="translate(0.0673828 -0.000244141)"/>
</clipPath>
</defs>
</svg>

<svg width="26" height="25" fill="none" xmlns="http://www.w3.org/2000/svg"><g clip-path="url(#clip0)"><path d="M8.401 20.69H.499a.431.431 0 01-.431-.432V4.741a.43.43 0 01.43-.431h7.903v16.38z" fill="#41479B"/><path d="M16.735 4.31H8.4v16.38h8.334V4.31z" fill="#F5F5F5"/><path d="M24.636 20.69h-7.902V4.31h7.902a.43.43 0 01.431.431v15.517a.431.431 0 01-.43.431z" fill="#FF4B55"/></g><defs><clipPath id="clip0"><path fill="#fff" transform="translate(.067)" d="M0 0h25v25H0z"/></clipPath></defs></svg>
